packages/ffe-icons/icons/filled/sm/bloodtype.svg

<svg xmlns="http://www.w3.org/2000/svg" height="20" viewBox="0 -960 960 960" width="20"><path d="M479.929-116.001q-121.467 0-206.697-85.253-85.231-85.252-85.231-206.691 0-57.209 25.914-113.417 25.914-56.209 64.785-107.884 38.871-51.676 84.086-97.226 45.214-45.55 83.676-80.68 7.615-6.231 16.129-9.731 8.513-3.5 17.432-3.5 8.919 0 16.91 3.5 7.99 3.5 15.285 10.731 37.782 35.13 82.82 80.603 45.038 45.473 84.615 97.251Q719.23-576.52 745.614-520.2q26.385 56.32 26.385 112.255 0 121.439-85.301 206.691-85.302 85.253-206.769 85.253Zm-83.929-134h168q11.05 0 18.524-7.418 7.475-7.418 7.475-18.384 0-10.966-7.475-18.581-7.474-7.615-18.524-7.615H396q-11.05 0-18.524 7.418-7.475 7.418-7.475 18.384 0 10.966 7.475 18.581 7.474 7.615 18.524 7.615Zm58.001-204V-396q0 11.05 7.418 18.524 7.418 7.475 18.384 7.475 10.966 0 18.581-7.475 7.615-7.474 7.615-18.524v-58.001H564q11.05 0 18.524-7.418 7.475-7.418 7.475-18.384 0-10.966-7.475-18.581-7.474-7.615-18.524-7.615h-58.001V-564q0-11.05-7.418-18.524-7.418-7.475-18.384-7.475-10.966 0-18.581 7.475-7.615 7.474-7.615 18.524v58.001H396q-11.05 0-18.524 7.418-7.475 7.418-7.475 18.384 0 10.966 7.475 18.581 7.474 7.615 18.524 7.615h58.001Z"/></svg>

<svg xmlns="http://www.w3.org/2000/svg" height="20" viewBox="0 -960 960 960" width="20"><path d="M479.93-116q-121.47 0-206.7-85.25Q188-286.51 188-407.94q0-57.21 25.92-113.42 25.91-56.21 64.78-107.89 38.87-51.67 84.09-97.22 45.21-45.55 83.67-80.68 7.62-6.23 16.13-9.73 8.51-3.5 17.43-3.5t16.91 3.5q7.99 3.5 15.29 10.73 37.78 35.13 82.82 80.6 45.04 45.47 84.61 97.25 39.58 51.78 65.96 108.1Q772-463.88 772-407.94q0 121.43-85.3 206.69Q601.4-116 479.93-116ZM396-250h168q11.05 0 18.52-7.42 7.48-7.42 7.48-18.38 0-10.97-7.48-18.58Q575.05-302 564-302H396q-11.05 0-18.52 7.42-7.48 7.42-7.48 18.38 0 10.97 7.48 18.58Q384.95-250 396-250Zm58-204v58q0 11.05 7.42 18.52 7.42 7.48 18.38 7.48 10.97 0 18.58-7.48Q506-384.95 506-396v-58h58q11.05 0 18.52-7.42 7.48-7.42 7.48-18.38 0-10.97-7.48-18.58Q575.05-506 564-506h-58v-58q0-11.05-7.42-18.52-7.42-7.48-18.38-7.48-10.97 0-18.58 7.48Q454-575.05 454-564v58h-58q-11.05 0-18.52 7.42-7.48 7.42-7.48 18.38 0 10.97 7.48 18.58Q384.95-454 396-454h58Z"/></svg>
